public/livestock/cow.svg

<svg fill="none" height="179" viewBox="0 0 179 179" width="179" xmlns="http://www.w3.org/2000/svg" xmlns:xlink="http://www.w3.org/1999/xlink"><clipPath id="a"><path d="m.423828.129639h178.13v178.13h-178.13z"/></clipPath><g clip-path="url(#a)"><path d="m59.9251 132.963v-56.5482h-6.0615c-1.0115-.0003-2.0206-.0991-3.0129-.2952-14.8708 9.232-25.9671 23.4588-31.2999 40.1304 5.6966-.814 11.5024.28 16.5118 3.112s8.9408 7.243 11.1808 12.543c2.2401 5.301 2.6629 11.194 1.2026 16.76-1.4604 5.566-4.7218 10.492-9.2755 14.01 12.3466 8.486 26.6443 13.701 41.555 15.157 1.1722-5.683 4.2082-10.811 8.6266-14.571v-14.215h-13.3394c-4.2658 0-8.357-1.694-11.3738-4.71-3.0169-3.016-4.7124-7.107-4.7138-11.373z" fill="#00bcb4"/><path d="m162.602 132.027c-5.868 1.544-12.092.993-17.598-1.559-5.505-2.552-9.948-6.945-12.562-12.422-2.614-5.476-3.236-11.693-1.757-17.579 1.478-5.8854 4.963-11.0709 9.855-14.6623-3.773-3.6557-7.926-6.8974-12.388-9.6699-.992.196-2.001.2949-3.013.2952h-6.107v56.533c0 2.113-.416 4.205-1.225 6.157-.808 1.951-1.993 3.725-3.487 5.219s-3.267 2.679-5.219 3.487c-1.952.809-4.044 1.225-6.157 1.225h-13.6139v14.209c2.8545-2.437 6.202-4.229 9.8133-5.253 3.6116-1.023 7.4016-1.255 11.1106-.677 3.709.577 7.249 1.948 10.379 4.021 3.129 2.072 5.774 4.797 7.753 7.986 13.87-6.755 25.758-16.984 34.506-29.691v-1.125c-.005-2.189-.117-4.357-.29-6.494z" fill="#3d113c"/><path d="m145.676 91.2911c-1.617-1.9148-3.331-3.746-5.135-5.4864-4.885 3.5944-8.364 8.7795-9.839 14.6623-1.474 5.883-.852 12.096 1.761 17.57 2.613 5.473 7.052 9.865 12.553 12.418 5.501 2.554 11.721 3.109 17.588 1.572-.15-1.697-.357-3.393-.621-5.09-2.089-13.145-7.727-25.47-16.307-35.6459z" fill="#00bcb4"/><path d="m80.7051 177.826c2.8365.279 5.712.421 8.6265.428v-14.999c-4.4183 3.761-7.4544 8.889-8.6265 14.571z" fill="#fffac2"/><path d="m89.4878 178.259c13.4752.02 26.7782-3.032 38.8982-8.922-1.979-3.189-4.624-5.914-7.753-7.986-3.13-2.073-6.67-3.444-10.379-4.021-3.709-.578-7.499-.346-11.1106.677-3.6113 1.024-6.9588 2.816-9.8133 5.253v14.999z" fill="#00bcb4"/><path d="m89.4878.129694c-16.2354-.018039-32.1665 4.404546-46.0692 12.789106-13.9027 8.3846-25.2475 20.4118-32.8067 34.7801-7.55912 14.3682-11.044673 30.5302-10.079411 46.7369.965261 16.2062 6.344571 31.8402 15.555811 45.2102v-1.125c-.0059-6.819.9379-13.606 2.8042-20.164.2036-.708.4174-1.405.6362-2.102 5.3266-16.6701 16.4155-30.8984 31.2795-40.1352.9924.196 2.0015.2949 3.013.2951h6.1073v56.5481c0 4.267 1.6949 8.359 4.7119 11.376 3.0171 3.017 7.109 4.712 11.3757 4.712h26.9739c4.262-.007 8.348-1.705 11.359-4.721 3.012-3.016 4.703-7.104 4.703-11.367v-56.5481h6.108c1.011-.0002 2.02-.0991 3.012-.2951 8.953 5.5542 16.608 12.9682 22.444 21.7396 5.837 8.7716 9.72 18.6956 11.386 29.0986.264 1.673.471 3.369.621 5.089.188 2.138.29 4.306.29 6.494v1.125c9.371-13.592 14.758-29.533 15.553-46.0234.071-1.4657.109-2.9417.112-4.4278.003-11.7-2.3-23.2859-6.776-34.0957-4.477-10.8099-11.039-20.6318-19.312-28.9047-8.274-8.273-18.096-14.8347-28.906-19.31041-10.81-4.4757-22.396-6.77764-34.0962-6.774296z" fill="#fdb98d"/><path d="m49.2819 142.053c.002-3.735-.799-7.426-2.3487-10.824-1.5496-3.398-3.8118-6.423-6.633-8.871-2.8212-2.447-6.1356-4.259-9.7185-5.313s-7.3505-1.325-11.0475-.795c-.2239.697-.4377 1.394-.6362 2.101-1.8663 6.559-2.8101 13.346-2.8042 20.165v1.125c6.2153 9.022 14.0331 16.828 23.0652 23.029 3.1526-2.433 5.7047-5.556 7.4597-9.131 1.755-3.574 2.6662-7.504 2.6632-11.486z" fill="#fffac2"/><path d="m59.9248 49.4969h.0458v-26.6787c-2.3231.0041-4.5496.9297-6.1908 2.5738s-2.563 3.8722-2.563 6.1953v29.3252h8.708z" fill="#3d113c"/><path d="m59.9849 49.512h-.0611v11.4003h.0611z" fill="#424242"/><path d="m59.9853 60.9125h-.0615v.1332h.0615z" fill="#b3b3b3"/><path d="m73.0748 81.0512c0-.6574.2611-1.2878.7259-1.7526.4649-.4648 1.0953-.726 1.7526-.726h-5.3795v.8958c0 1.0798.429 2.1154 1.1925 2.879.7636.7635 1.7992 1.1925 2.8791 1.1925h1.3181c-.3272.0013-.6514-.0621-.954-.1867-.3025-.1246-.5774-.3079-.8088-.5392-.2313-.2314-.4146-.5063-.5392-.8088-.1246-.3026-.1881-.6268-.1867-.954z" fill="#fff"/><path d="m76.8149 78.5879h-1.2622c.6581 0 1.2891.2614 1.7544.7267s.7267 1.0964.7267 1.7544-.2614 1.2891-.7267 1.7544-1.0963.7267-1.7544.7267h1.2622c.6373-.0289 1.2388-.3024 1.6796-.7636.4407-.4612.6867-1.0745.6867-1.7124s-.246-1.2513-.6867-1.7125c-.4408-.4611-1.0423-.7346-1.6796-.7635z" fill="#fff"/><path d="m76.8165 78.939c-.3832-.2253-.8179-.348-1.2622-.3563-.3531-.0027-.7027.0701-1.0254.2134-.3227.1434-.611.354-.8457.6179-.2347.2638-.4103.5748-.515.912s-.1362.6929-.0923 1.0433c.0438.3503.1621.6873.3468.9882.1847.301.4315.559.724.7568s.6239.3309.972.3902.7048.0436 1.0463-.0461c.4762-.1174.9065-.3743 1.2358-.7378s.5426-.817.6126-1.3024c.07-.4855-.0066-.9808-.2198-1.4225-.2132-.4416-.5535-.8096-.9771-1.0567z" fill="#000"/><path d="m78.6376 119.812c-2.9601 0-5.7989 1.176-7.892 3.269s-3.269 4.932-3.269 7.892c.0027 2.959 1.1798 5.795 3.2726 7.886s4.9301 3.265 7.8884 3.265h10.6878v-22.312z" fill="#00bcb4"/><path d="m119.054 60.9124h8.708v-29.2285c-.003-2.3213-.926-4.5468-2.567-6.1887-1.641-1.6418-3.866-2.5661-6.187-2.5702v26.5719h.061z" fill="#3d113c"/><path d="m119.053 49.512h-.061v11.4003h.061z" fill="#b3b3b3"/><path d="m59.9699 49.4968v11.5326h-.0611v-.1323h-21.5689c-.0027 2.039.397 4.0585 1.1762 5.9427s1.9226 3.5962 3.3646 5.0377c1.442 1.4416 3.1543 2.5844 5.0388 3.363 1.8845.7785 3.9041 1.1776 5.9431 1.1742h6.1073v56.5483c0 2.113.4161 4.205 1.2246 6.157.8084 1.952 1.9935 3.725 3.4873 5.219 1.4939 1.494 3.2674 2.679 5.2192 3.487 1.9519.809 4.0439 1.225 6.1565 1.225h13.3139v-6.927h-10.6877c-1.4657 0-2.9171-.288-4.2712-.849s-2.5845-1.383-3.6209-2.42c-1.0364-1.036-1.8586-2.267-2.4194-3.621-.5609-1.354-.8496-2.805-.8496-4.271 0-1.466.2887-2.917.8496-4.271.5608-1.354 1.383-2.585 2.4194-3.621s2.2668-1.859 3.6209-2.419c1.3541-.561 2.8055-.85 4.2712-.85h10.6877v-70.3052zm16.8358 34.0279h-2.5855c-1.0798 0-2.1154-.429-2.879-1.1926-.7635-.7635-1.1925-1.7991-1.1925-2.879v-.8957h6.6671c.6373.0289 1.2389.3024 1.6796.7636.4407.4611.6867 1.0745.6867 1.7124s-.246 1.2512-.6867 1.7124-1.0423.7347-1.6796.7636z" fill="#fffac2"/><path d="m127.76 60.9124h-8.708v.2392h-.046v-11.6548h-29.6759v70.3152h11.0079c2.961 0 5.799 1.176 7.893 3.269 2.093 2.093 3.269 4.932 3.269 7.892-.003 2.959-1.18 5.795-3.273 7.886s-4.93 3.265-7.889 3.265h-11.0079v6.922h13.6349c4.265 0 8.357-1.694 11.374-4.71 3.016-3.016 4.712-7.107 4.713-11.373v-56.5483h6.108c2.035 0 4.05-.4008 5.93-1.1796s3.589-1.9203 5.028-3.3594 2.58-3.1475 3.359-5.0277 1.18-3.8954 1.18-5.9305h-12.897zm-18.932 18.5662c0 1.0798-.429 2.1154-1.193 2.879-.763.7635-1.799 1.1925-2.879 1.1925h-2.545c-.637-.0289-1.238-.3024-1.679-.7636-.441-.4611-.6869-1.0745-.6869-1.7124s.2459-1.2513.6869-1.7124c.441-.4612 1.042-.7347 1.679-.7636h6.617z" fill="#016099"/><path d="m119.053 60.9125h-.061v.2399h.061z" fill="#b3b3b3"/><path d="m103.453 78.583c.658 0 1.289.2614 1.755.7267.465.4653.726 1.0963.726 1.7544 0 .658-.261 1.2891-.726 1.7544-.466.4653-1.097.7266-1.755.7266h1.303c1.08 0 2.115-.4289 2.879-1.1925.764-.7635 1.193-1.7991 1.193-2.879v-.8957z" fill="#fff"/><path d="m102.212 83.1888c-.45-.285-.796-.7067-.987-1.2032-.192-.4964-.219-1.0413-.078-1.5544.142-.513.444-.9671.863-1.2953s.932-.5132 1.464-.5276h-1.262c-.637.0289-1.239.3024-1.68.7635-.44.4612-.6863 1.0746-.6863 1.7125s.2463 1.2512.6863 1.7124c.441.4612 1.043.7347 1.68.7636h1.262c-.444-.0083-.879-.131-1.262-.3563z" fill="#fff"/><path d="m103.453 78.5827c-.49 0-.969.1454-1.377.4177-.407.2724-.725.6595-.913 1.1124-.187.4529-.236.9512-.141 1.432.096.4808.332.9224.679 1.2691.346.3466.788.5827 1.269.6783.48.0956.979.0465 1.432-.1411.453-.1875.84-.5052 1.112-.9128s.418-.8868.418-1.377c.002-.3263-.06-.6498-.183-.9517-.124-.302-.307-.5763-.537-.807-.231-.2307-.505-.4131-.807-.5367s-.626-.1859-.952-.1832z" fill="#000"/><path d="m100.338 119.812h-11.0079v22.312h11.0079c1.466 0 2.918-.289 4.272-.849 1.354-.561 2.584-1.383 3.621-2.42 1.036-1.036 1.858-2.267 2.419-3.621s.85-2.805.85-4.271c-.003-2.958-1.18-5.795-3.273-7.885-2.093-2.091-4.93-3.266-7.889-3.266z" fill="#3d113c"/><g fill="#016099"><path d="m78.3535 130.927h4.723v3.563h-1.8322c-.7667 0-1.502-.304-2.0441-.847-.5421-.542-.8467-1.277-.8467-2.044z"/><path d="m83.05 134.475c.9725 0 1.7609-.789 1.7609-1.761 0-.973-.7884-1.761-1.7609-1.761s-1.7609.788-1.7609 1.761c0 .972.7884 1.761 1.7609 1.761z"/><path d="m96.9645 134.5h-1.8322v-3.562h4.7229v.636c.0048.382-.0665.762-.2097 1.117s-.3553.678-.6242.95c-.269.272-.5892.488-.9423.636-.3531.147-.7319.223-1.1145.223z"/><path d="m95.1633 134.475c.9725 0 1.7609-.789 1.7609-1.761 0-.973-.7884-1.761-1.7609-1.761-.9726 0-1.761.788-1.761 1.761 0 .972.7884 1.761 1.761 1.761z"/></g></g></svg>

<svg width="179" height="179" viewBox="0 0 179 179" fill="none" xmlns="http://www.w3.org/2000/svg">
<g clip-path="url(#clip0_2831_6055)">
<path d="M59.9251 132.963V76.4148H53.8636C52.8521 76.4145 51.843 76.3157 50.8507 76.1196C35.9799 85.3516 24.8836 99.5784 19.5508 116.25C25.2474 115.436 31.0532 116.53 36.0626 119.362C41.072 122.194 45.0034 126.605 47.2434 131.905C49.4835 137.206 49.9063 143.099 48.446 148.665C46.9856 154.231 43.7242 159.157 39.1705 162.675C51.5171 171.161 65.8148 176.376 80.7255 177.832C81.8977 172.149 84.9337 167.021 89.3521 163.261V149.046H76.0127C71.7469 149.046 67.6557 147.352 64.6389 144.336C61.622 141.32 59.9265 137.229 59.9251 132.963V132.963Z" fill="#00BCB4"/>
<path d="M162.602 132.027C156.734 133.571 150.51 133.02 145.004 130.468C139.499 127.916 135.056 123.523 132.442 118.046C129.828 112.57 129.206 106.353 130.685 100.467C132.163 94.5816 135.648 89.3961 140.54 85.8047C136.767 82.149 132.614 78.9073 128.152 76.1348C127.16 76.3308 126.151 76.4297 125.139 76.43H119.032V132.963C119.032 135.076 118.616 137.168 117.807 139.12C116.999 141.071 115.814 142.845 114.32 144.339C112.826 145.833 111.053 147.018 109.101 147.826C107.149 148.635 105.057 149.051 102.944 149.051H89.3301V163.26C92.1846 160.823 95.5321 159.031 99.1434 158.007C102.755 156.984 106.545 156.752 110.254 157.33C113.963 157.907 117.503 159.278 120.633 161.351C123.762 163.423 126.407 166.148 128.386 169.337C142.256 162.582 154.144 152.353 162.892 139.646V138.521C162.887 136.332 162.775 134.164 162.602 132.027Z" fill="#3D113C"/>
<path d="M145.676 91.2911C144.059 89.3763 142.345 87.5451 140.541 85.8047C135.656 89.3991 132.177 94.5842 130.702 100.467C129.228 106.35 129.85 112.563 132.463 118.037C135.076 123.51 139.515 127.902 145.016 130.455C150.517 133.009 156.737 133.564 162.604 132.027C162.454 130.33 162.247 128.634 161.983 126.937C159.894 113.792 154.256 101.467 145.676 91.2911Z" fill="#00BCB4"/>
<path d="M80.7051 177.826C83.5416 178.105 86.4171 178.247 89.3316 178.254V163.255C84.9133 167.016 81.8772 172.144 80.7051 177.826V177.826Z" fill="#FFFAC2"/>
<path d="M89.4878 178.259C102.963 178.279 116.266 175.227 128.386 169.337C126.407 166.148 123.762 163.423 120.633 161.351C117.503 159.278 113.963 157.907 110.254 157.33C106.545 156.752 102.755 156.984 99.1434 158.007C95.5321 159.031 92.1846 160.823 89.3301 163.26V178.259H89.4878Z" fill="#00BCB4"/>
<path d="M89.4878 0.129694C73.2524 0.111655 57.3213 4.53424 43.4186 12.9188C29.5159 21.3034 18.1711 33.3306 10.6119 47.6989C3.05278 62.0671 -0.432773 78.2291 0.532489 94.4358C1.49775 110.642 6.87706 126.276 16.0883 139.646V138.521C16.0824 131.702 17.0262 124.915 18.8925 118.357C19.0961 117.649 19.3099 116.952 19.5287 116.255C24.8553 99.5849 35.9442 85.3566 50.8082 76.1198C51.8006 76.3158 52.8097 76.4147 53.8212 76.4149H59.9285V132.963C59.9285 137.23 61.6234 141.322 64.6404 144.339C67.6575 147.356 71.7494 149.051 76.0161 149.051H102.99C107.252 149.044 111.338 147.346 114.349 144.33C117.361 141.314 119.052 137.226 119.052 132.963V76.4149H125.16C126.171 76.4147 127.18 76.3158 128.172 76.1198C137.125 81.674 144.78 89.088 150.616 97.8594C156.453 106.631 160.336 116.555 162.002 126.958C162.266 128.631 162.473 130.327 162.623 132.047C162.811 134.185 162.913 136.353 162.913 138.541V139.666C172.284 126.074 177.671 110.133 178.466 93.6426C178.537 92.1769 178.575 90.7009 178.578 89.2148C178.581 77.5148 176.278 65.9289 171.802 55.1191C167.325 44.3092 160.763 34.4873 152.49 26.2144C144.216 17.9414 134.394 11.3797 123.584 6.90399C112.774 2.42829 101.188 0.12635 89.4878 0.129694V0.129694Z" fill="#FDB98D"/>
<path d="M49.2819 142.053C49.2839 138.318 48.4829 134.627 46.9332 131.229C45.3836 127.831 43.1214 124.806 40.3002 122.358C37.479 119.911 34.1646 118.099 30.5817 117.045C26.9988 115.991 23.2312 115.72 19.5342 116.25C19.3103 116.947 19.0965 117.644 18.898 118.351C17.0317 124.91 16.0879 131.697 16.0938 138.516V139.641C22.3091 148.663 30.1269 156.469 39.159 162.67C42.3116 160.237 44.8637 157.114 46.6187 153.539C48.3737 149.965 49.2849 146.035 49.2819 142.053V142.053Z" fill="#FFFAC2"/>
<path d="M59.9248 49.4969H59.9706V22.8182C57.6475 22.8223 55.421 23.7479 53.7798 25.392C52.1386 27.0361 51.2168 29.2642 51.2168 31.5873V60.9125H59.9248V49.4969Z" fill="#3D113C"/>
<path d="M59.9849 49.512H59.9238V60.9123H59.9849V49.512Z" fill="#424242"/>
<path d="M59.9853 60.9125H59.9238V61.0457H59.9853V60.9125Z" fill="#B3B3B3"/>
<path d="M73.0748 81.0512C73.0748 80.3938 73.3359 79.7634 73.8007 79.2986C74.2656 78.8338 74.896 78.5726 75.5533 78.5726H70.1738V79.4684C70.1738 80.5482 70.6028 81.5838 71.3663 82.3474C72.1299 83.1109 73.1655 83.5399 74.2454 83.5399H75.5635C75.2363 83.5412 74.9121 83.4778 74.6095 83.3532C74.307 83.2286 74.0321 83.0453 73.8007 82.814C73.5694 82.5826 73.3861 82.3077 73.2615 82.0052C73.1369 81.7026 73.0734 81.3784 73.0748 81.0512V81.0512Z" fill="white"/>
<path d="M76.8149 78.5879H75.5527C76.2108 78.5879 76.8418 78.8493 77.3071 79.3146C77.7724 79.7799 78.0338 80.411 78.0338 81.069C78.0338 81.727 77.7724 82.3581 77.3071 82.8234C76.8418 83.2887 76.2108 83.5501 75.5527 83.5501H76.8149C77.4522 83.5212 78.0537 83.2477 78.4945 82.7865C78.9352 82.3253 79.1812 81.712 79.1812 81.0741C79.1812 80.4362 78.9352 79.8228 78.4945 79.3616C78.0537 78.9005 77.4522 78.627 76.8149 78.5981V78.5879Z" fill="white"/>
<path d="M76.8165 78.939C76.4333 78.7137 75.9986 78.591 75.5543 78.5827C75.2012 78.58 74.8516 78.6528 74.5289 78.7961C74.2062 78.9395 73.9179 79.1501 73.6832 79.414C73.4485 79.6778 73.2729 79.9888 73.1682 80.326C73.0635 80.6632 73.032 81.0189 73.0759 81.3693C73.1197 81.7196 73.238 82.0566 73.4227 82.3575C73.6074 82.6585 73.8542 82.9165 74.1467 83.1143C74.4392 83.3121 74.7706 83.4452 75.1187 83.5045C75.4668 83.5638 75.8235 83.5481 76.165 83.4584C76.6412 83.341 77.0715 83.0841 77.4008 82.7206C77.7301 82.3571 77.9434 81.9036 78.0134 81.4182C78.0834 80.9327 78.0068 80.4374 77.7936 79.9957C77.5804 79.5541 77.2401 79.1861 76.8165 78.939V78.939Z" fill="black"/>
<path d="M78.6376 119.812C75.6775 119.812 72.8387 120.988 70.7456 123.081C68.6525 125.174 67.4766 128.013 67.4766 130.973V130.973C67.4793 133.932 68.6564 136.768 70.7492 138.859C72.842 140.95 75.6793 142.124 78.6376 142.124H89.3254V119.812H78.6376Z" fill="#00BCB4"/>
<path d="M119.054 60.9124H127.762V31.6839C127.759 29.3626 126.836 27.1371 125.195 25.4952C123.554 23.8534 121.329 22.9291 119.008 22.925V49.4969H119.069L119.054 60.9124Z" fill="#3D113C"/>
<path d="M119.053 49.512H118.992V60.9123H119.053V49.512Z" fill="#B3B3B3"/>
<path d="M59.9699 49.4968V61.0294H59.9088V60.8971H38.3399C38.3372 62.9361 38.7369 64.9556 39.5161 66.8398C40.2953 68.724 41.4387 70.436 42.8807 71.8775C44.3227 73.3191 46.035 74.4619 47.9195 75.2405C49.804 76.019 51.8236 76.4181 53.8626 76.4147H59.9699V132.963C59.9699 135.076 60.386 137.168 61.1945 139.12C62.0029 141.072 63.188 142.845 64.6818 144.339C66.1757 145.833 67.9492 147.018 69.901 147.826C71.8529 148.635 73.9449 149.051 76.0575 149.051H89.3714V142.124H78.6837C77.218 142.124 75.7666 141.836 74.4125 141.275C73.0584 140.714 71.828 139.892 70.7916 138.855C69.7552 137.819 68.933 136.588 68.3722 135.234C67.8113 133.88 67.5226 132.429 67.5226 130.963V130.963C67.5226 129.497 67.8113 128.046 68.3722 126.692C68.933 125.338 69.7552 124.107 70.7916 123.071C71.828 122.035 73.0584 121.212 74.4125 120.652C75.7666 120.091 77.218 119.802 78.6837 119.802H89.3714V49.4968H59.9699ZM76.8057 83.5247H74.2202C73.1404 83.5247 72.1048 83.0957 71.3412 82.3321C70.5777 81.5686 70.1487 80.533 70.1487 79.4531V78.5574H76.8158C77.4531 78.5863 78.0547 78.8598 78.4954 79.321C78.9361 79.7821 79.1821 80.3955 79.1821 81.0334C79.1821 81.6713 78.9361 82.2846 78.4954 82.7458C78.0547 83.207 77.4531 83.4805 76.8158 83.5094L76.8057 83.5247Z" fill="#FFFAC2"/>
<path d="M127.76 60.9124H119.052V61.1516H119.006V49.4968H89.3301V119.812H100.338C103.299 119.812 106.137 120.988 108.231 123.081C110.324 125.174 111.5 128.013 111.5 130.973V130.973C111.497 133.932 110.32 136.768 108.227 138.859C106.134 140.95 103.297 142.124 100.338 142.124H89.3301V149.046H102.965C107.23 149.046 111.322 147.352 114.339 144.336C117.355 141.32 119.051 137.229 119.052 132.963V76.4147H125.16C127.195 76.4147 129.21 76.0139 131.09 75.2351C132.97 74.4563 134.679 73.3148 136.118 71.8757C137.557 70.4366 138.698 68.7282 139.477 66.848C140.256 64.9678 140.657 62.9526 140.657 60.9175H127.76V60.9124ZM108.828 79.4786C108.828 80.5584 108.399 81.594 107.635 82.3576C106.872 83.1211 105.836 83.5501 104.756 83.5501H102.211C101.574 83.5212 100.973 83.2477 100.532 82.7865C100.091 82.3254 99.8451 81.712 99.8451 81.0741C99.8451 80.4362 100.091 79.8228 100.532 79.3617C100.973 78.9005 101.574 78.627 102.211 78.5981H108.828V79.4786Z" fill="#016099"/>
<path d="M119.053 60.9125H118.992V61.1524H119.053V60.9125Z" fill="#B3B3B3"/>
<path d="M103.453 78.583C104.111 78.583 104.742 78.8444 105.208 79.3097C105.673 79.775 105.934 80.406 105.934 81.0641C105.934 81.7221 105.673 82.3532 105.208 82.8185C104.742 83.2838 104.111 83.5451 103.453 83.5451H104.756C105.836 83.5451 106.871 83.1162 107.635 82.3526C108.399 81.5891 108.828 80.5535 108.828 79.4736V78.5779L103.453 78.583Z" fill="white"/>
<path d="M102.212 83.1888C101.762 82.9038 101.416 82.4821 101.225 81.9856C101.033 81.4892 101.006 80.9443 101.147 80.4312C101.289 79.9182 101.591 79.4641 102.01 79.1359C102.429 78.8077 102.942 78.6227 103.474 78.6083H102.212C101.575 78.6372 100.973 78.9107 100.532 79.3718C100.092 79.833 99.8457 80.4464 99.8457 81.0843C99.8457 81.7222 100.092 82.3355 100.532 82.7967C100.973 83.2579 101.575 83.5314 102.212 83.5603H103.474C103.03 83.552 102.595 83.4293 102.212 83.204V83.1888Z" fill="white"/>
<path d="M103.453 78.5827C102.963 78.5827 102.484 78.7281 102.076 79.0004C101.669 79.2728 101.351 79.6599 101.163 80.1128C100.976 80.5657 100.927 81.064 101.022 81.5448C101.118 82.0256 101.354 82.4672 101.701 82.8139C102.047 83.1605 102.489 83.3966 102.97 83.4922C103.45 83.5878 103.949 83.5387 104.402 83.3511C104.855 83.1636 105.242 82.8459 105.514 82.4383C105.786 82.0307 105.932 81.5515 105.932 81.0613C105.934 80.735 105.872 80.4115 105.749 80.1096C105.625 79.8076 105.442 79.5333 105.212 79.3026C104.981 79.0719 104.707 78.8895 104.405 78.7659C104.103 78.6423 103.779 78.58 103.453 78.5827V78.5827Z" fill="black"/>
<path d="M100.338 119.812H89.3301V142.124H100.338C101.804 142.124 103.256 141.835 104.61 141.275C105.964 140.714 107.194 139.892 108.231 138.855C109.267 137.819 110.089 136.588 110.65 135.234C111.211 133.88 111.5 132.429 111.5 130.963V130.963C111.497 128.005 110.32 125.168 108.227 123.078C106.134 120.987 103.297 119.812 100.338 119.812V119.812Z" fill="#3D113C"/>
<path d="M78.3535 130.927H83.0765V134.49H81.2443C80.4776 134.49 79.7423 134.186 79.2002 133.643C78.6581 133.101 78.3535 132.366 78.3535 131.599V130.927Z" fill="#016099"/>
<path d="M83.05 134.475C84.0225 134.475 84.8109 133.686 84.8109 132.714C84.8109 131.741 84.0225 130.953 83.05 130.953C82.0775 130.953 81.2891 131.741 81.2891 132.714C81.2891 133.686 82.0775 134.475 83.05 134.475Z" fill="#016099"/>
<path d="M96.9645 134.5H95.1323V130.938H99.8552V131.574C99.86 131.956 99.7887 132.336 99.6455 132.691C99.5023 133.046 99.2902 133.369 99.0213 133.641C98.7523 133.913 98.4321 134.129 98.079 134.277C97.7259 134.424 97.3471 134.5 96.9645 134.5V134.5Z" fill="#016099"/>
<path d="M95.1633 134.475C96.1358 134.475 96.9242 133.686 96.9242 132.714C96.9242 131.741 96.1358 130.953 95.1633 130.953C94.1907 130.953 93.4023 131.741 93.4023 132.714C93.4023 133.686 94.1907 134.475 95.1633 134.475Z" fill="#016099"/>
</g>
<defs>
<clipPath id="clip0_2831_6055">
<rect width="178.13" height="178.13" fill="white" transform="translate(0.423828 0.129639)"/>
</clipPath>
</defs>
</svg>
